!!!COM: Bach, Johann Sebastian
!!!CDT: 1685/3//-1750/7/28/
!!!OTL@@DE: Herr Christ, der ein'ge Gott's Sohn
!!!AGN: 4-Part Chorale
!!!SCT: BH 303
!!!SCT: BWV 96
**harm	**root	**kern	**kern	**kern	**kern
!	!	!bass	!tenor	!alto	!soprno
*	*Iorgan	*Iorgan	*Iorgan	*Iorgan	*Iorgan
*M4/4	*M4/4	*M4/4	*M4/4	*M4/4	*M4/4
*met(c)	*met(c)	*met(c)	*met(c)	*met(c)	*met(c)
*MM60	*MM60	*MM60	*MM60	*MM60	*MM60
*k[f#c#g#d#]	*k[f#c#g#d#]	*k[f#c#g#d#]	*k[f#c#g#d#]	*k[f#c#g#d#]	*k[f#c#g#d#]
*E:	*E:	*E:	*E:	*E:	*E:
*>[A,A,B]	*>[A,A,B]	*>[A,A,B]	*>[A,A,B]	*>[A,A,B]	*>[A,A,B]
*>A	*>A	*>A	*>A	*>A	*>A
I	4FF	4E	4G#	4B	4e
=1	=1	=1	=1	=1	=1
IV	4BB-	4AA	4A	8c#	8e
.	.	.	.	8d#	8f#
I	4FF	4E	4B	4e	4g#
V	4CC	4BB	8B	4d#	4f#
.	.	.	8A	.	.
vi	4DD	4C#	4G#	4c#	4e
=2	=2	=2	=2	=2	=2
vii7b	4EE	4FF#	4A	4c#	2d#
V/vi	4AA	4GG#	8G#	4B#	.
.	.	.	8F#	.	.
vi;	4DD;	4C#;	4E;	4G#;	4c#;
V/ii	4DD	4C#	4c#	4e#	4g#
=3	=3	=3	=3	=3	=3
ii	4GG	8F#	4c#	8f#	4a
.	.	8G#	.	8e	.
V7d	4CC	4A	4B	4d#	4f#
I	4FF	8G#	4B	4e	4g#
.	.	8E	.	.	.
V	4CC	4BB	8B	4d#	4f#
.	.	.	8A	.	.
=4	=4	=4	=4	=4	=4
I;	2.FF;	2.EE;	2.G#;	2.B;	2.e;
=:|!	=:|!	=:|!	=:|!	=:|!	=:|!
*>B	*>B	*>B	*>B	*>B	*>B
I	4FF	8E	4G#	4B	8e
.	.	8D#	.	.	8f#
=5	=5	=5	=5	=5	=5
vi	4DD	4C#	4c#	4e	4g#
V7d/ii	4DD	4BB	4c#	4e#	4g#
iib	4GG	8AA	4c#	4f#	4a
.	.	8GG#	.	.	.
ii	4GG	4FF#	4c#	4f#	4a
!!linebreak: 2
=6	=6	=6	=6	=6	=6
Ib	2FF	4.GG#	2B	4f#	2b
.	.	.	.	4e	.
.	.	8AA	.	.	.
V;	4CC;	4BB;	4B;	4d#;	4f#;
Vb	4CC	4D#	4B	4f#	4b
=7	=7	=7	=7	=7	=7
I	4FF	4E	4B	4e	4g#
viioD7/ii	4FF#	4E#	4B	4d	4g#
ii	4GG	4F#	4A	4c#	4f#
viioD7/iii	4GG#	4F##	4A#	4c#	4e
=8	=8	=8	=8	=8	=8
iii	4AA	4G#	8D#	4c#	2d#
.	.	.	8E	.	.
V7/vi	4AA	4GG#	4F#	4B#	.
IV;	4BB-;	4AA;	4E;	4c#;	4c#;
viib/ii	4FF#	4GG#	4B	4e#	4g#
=9	=9	=9	=9	=9	=9
ii	4GG	8FF#	4c#	8f#	4a
.	.	8GG#	.	8e	.
V7d	4CC	4AA	4B	4d#	4f#
Ib	4FF	8GG#	4B	4e	4g#
.	.	8AA	.	.	.
V	4CC	4BB	8B	4d#	4f#
.	.	.	8A	.	.
=10	=10	=10	=10	=10	=10
I;	2.FF;	2.EE;	2.G#;	2.B;	2.e;
==	==	==	==	==	==
*-	*-	*-	*-	*-	*-
!!chor2scor: -l 2 -s 0.6 -o %b.pmx
!!!YEC: Copyright 1994, David Huron
!!!YEC: Changes/Additions 2001 by Craig Stuart Sapp
!!!YEN: United States of America
!!!SMA: 371 Bach Chorales, edited by Ludwig Erk, C.F. Peters
!!!PDT: 1850, 1865
!!!ONB: Harmony and Root analysis done manually
